X:1
T:Cathrine Chalmers
T:Cathrine Chalmers
T:Nathaniel Gow
C:Nathaniel Gow
L:1/8
Q:1/8=232
M:4/4
K:G
V:1 treble 
V:1
|: B/c/d cB c/d/e dc | BE AG F2 ED | BG DB, CE Ac | BG AF G2 Gc | B/c/d cB c/d/e dc | BE AG F2 ED | %6
 BG DB, CE Ac | BG AF G2 Gd | gb ge ^df bd | eg ed ^ce ac | de fd Bg eg | fd e^c d2 D2 | %12
 dc/B/ bB ca Ac | Bg GB AF ED | dB Bd cA Ac | BG AF G2 G2 :| %16

